Other/flag.svg

<svg xmlns="http://www.w3.org/2000/svg" viewBox="0 0 24 24" style="enable-background:new 0 0 24 24" xml:space="preserve"><path d="m22.2 2.1-.2-.2c-.1 0-.2-.1-.3-.1h-.3c-1.2.5-2.6.8-4.1.8-1.1 0-2.7-.6-4.4-1.1C10.9.8 8.6 0 6.6 0c-2.7 0-4 .5-4.4.8-.1 0-.3.2-.3.3-.1.2-.2.4-.2.5v21.8c0 .3.2.5.5.5s.5-.2.5-.5v-8.6c.4-.2 1.5-.7 4-.7 1.9 0 4 .5 6 1 1.8.4 3.4.8 4.7.8 2.3 0 4.1-.7 4.5-.9.1 0 .2-.1.3-.2.1-.1.1-.2.1-.4v-12c0-.1 0-.2-.1-.3zm-.9 12.2c-.6.2-2 .7-4 .7-1.2 0-2.8-.4-4.5-.8-2.1-.5-4.2-1-6.2-1-2.1 0-3.3.3-4 .6V1.6C3 1.5 4.1 1 6.7 1c1.8 0 3.9.7 6 1.4 1.7.6 3.4 1.2 4.7 1.2 1.4 0 2.7-.2 4-.7v11.4z" style="fill:#263238"/></svg>

<?xml version="1.0" encoding="utf-8"?>
<!-- Generator: Adobe Illustrator 25.4.1, SVG Export Plug-In . SVG Version: 6.00 Build 0)  -->
<svg version="1.1" id="Capa_1" xmlns="http://www.w3.org/2000/svg" xmlns:xlink="http://www.w3.org/1999/xlink" x="0px" y="0px"
	 viewBox="0 0 24 24" style="enable-background:new 0 0 24 24;" xml:space="preserve">
<style type="text/css">
	.st0{fill:#263238;}
</style>
<path class="st0" d="M22.2,2.1C22.1,2,22.1,2,22,1.9c-0.1,0-0.2-0.1-0.3-0.1c-0.1,0-0.2,0-0.3,0c-1.2,0.5-2.6,0.8-4.1,0.8
	c-1.1,0-2.7-0.6-4.4-1.1c-2-0.7-4.3-1.5-6.3-1.5c-2.7,0-4,0.5-4.4,0.8c-0.1,0-0.3,0.2-0.3,0.3C1.8,1.3,1.7,1.5,1.7,1.6v21.8
	c0,0.3,0.2,0.5,0.5,0.5s0.5-0.2,0.5-0.5v-8.6c0.4-0.2,1.5-0.7,4-0.7c1.9,0,4,0.5,6,1c1.8,0.4,3.4,0.8,4.7,0.8c2.3,0,4.1-0.7,4.5-0.9
	c0.1,0,0.2-0.1,0.3-0.2c0.1-0.1,0.1-0.2,0.1-0.4V2.4C22.3,2.3,22.3,2.2,22.2,2.1z M21.3,14.3c-0.6,0.2-2,0.7-4,0.7
	c-1.2,0-2.8-0.4-4.5-0.8c-2.1-0.5-4.2-1-6.2-1c-2.1,0-3.3,0.3-4,0.6l0-12.2C3,1.5,4.1,1,6.7,1c1.8,0,3.9,0.7,6,1.4
	c1.7,0.6,3.4,1.2,4.7,1.2c1.4,0,2.7-0.2,4-0.7V14.3z"/>
</svg>
